X: 69
T:Debka Oud
O:Israel 
I:taught by Moshe Eskayo
F: http://www.youtube.com/watch?v=KgsHB0sKz4I
F: http://www.youtube.com/watch?v=jWdjvHW6Hj4
F: http://www.youtube.com/watch?v=KJMH-RjGJKc
F: http://www.youtube.com/watch?v=2Ypln21ntoA
L:1/8
M:4/4
Q:1/4=144
K:Am
%%MIDI gchord f2zffzfz
| "Am"z8          |z8                 |\
|:"Am"Aeee e2 e2  |efde c2 B2         |Aeee e2 e2         |"C"g^fga "Am"^f2 e2|
  Aeee e2 e2      |efde c2 B2         |Ac2c "Em"BAG2      |"Am"cdBA A4        :|
|:"Am"G A2 A A2 A2|"C"G^FGA "Am"^F2 E2|G A2 A "Em"AG B/A/G| "Am"A8            |
  "Am"G A2 A A2 A2|"C"G^FGA "Am"^F2 E2|efde cdBA          | A8                :|



